X: 429
T: Bitmez Tükenmez Bu Dert
C: Selahattin İçli
O: Turkey
F: http://compmusic.upf.edu/node/140
N: kurdilihicazkar--sarki--kapali_curcuna--bitmez_tukenmez--selahattin_icli
N: makam= kurdilihicazkar
N: form= sarki
N: usul= kapali_curcuna = 10/8
M: 10/8
L: 1/16
K: C _B _e _A 
Q: 1/4=180
%%MIDI tuningsystem comma53
z4 b2_1/4a2 g2_a2 g2b2 a2{b}ag  | g16-g4  | \
w:  Bit  |  mez   | 
z4 f2g2 e2d2 c2B2 A2{B}AG  | 
w:  tü ken  | 
G8-G2dc _1/4Bcd6  | z4 _1/4B2c2 d2_1/4e2 f2g2 a2g2  | \
w:  mez  bu  *  *  *  dert   |  tü ken *  mez   | 
a2g2 a2g2 a2ag f_1/4ef6  | 
w:  bu  *  *  *  *  dert   | 
z4 b2b2 _1/4a2a2 g2g2 a2b2  | _1/4a2g2 b2_a2 g2g8-g2  | \
w:  ö mür  *  di *  yor  |  lar  *  *  bu *  na   | 
g3f e2d2 c2B2 A2G6  | 
w:  SAZ  | 
z4 b2_1/4a2 g2_a2 g2b2 a2{b}ag  | g16-g4  | \
w:  Bit  |  mez   | 
z4 f2g2 e2d2 c2B2 A2{B}AG  | 
w:  tü ken  | 
G8-G2dc _1/4Bcd6  | z4 _1/4B2c2 d2_1/4e2 f2g2 a2g2  | \
w:  mez  bu  *  *  *  dert   |  tü ken *  mez   | 
a2g2 a2g2 a2ag f_1/4ef6  | 
w:  bu  *  *  *  *  dert   | 
z4 b2b2 _1/4a2a2 g2g2 a2b2  | _1/4a2g2 b2_a2 g2g8-g2  | \
w:  ö mür  *  di *  yor  |  lar  *  *  bu *  na   | 
g3f e2d2 c2_1/4e2 f2g6  | 
w:  SAZ  | 
z4 c'2c'2 b2a2 gfg6  | b2g2 f2f2 _1/4e2f2 e2f2 e2d2  | \
w:  Bu  ge *  ce   |  meh *  tap  *  *  gi *  bi   | 
_1/4e2f2 g2g2 a2a2 g2b2 g2f2  | 
w:  aş *  *  kım *  da  *  bit  | 
f2_1/4e2 f2e2 d2d8c2  | cBB=A B16  | \
w:  se  *  *  su *  da   |   | 
z4 e2e4e2 d2d4c2  | B4 A2A2 G2G4e4d2  | 
w:  Bu  ge ce   |  meh tap  *  *  gi bi   | 
d4 c2c2 B2B2 A2A2 G2B2  | A2G4G4G8-G2  | \
w:  aş *  kım *  da  *  bit  |  se  *  su da   | 
d4 e2d2 c2_1/4B2 c2d6  | 
w:  SAZ  | 
z4 c2d4d8-d2  | z4 f2f3_1/4ee2 d2d6  | \
w:  Gön *  lüm   |  u yu *  sun   | 
z4 c2d2 _1/4e2f2 g2a3gf2  | 
w:  se sin  | 
a18g2  | g2z2 b2b2 _1/4a2a2 g2g6  | a2g2 a2g2 a2ag f_1/4ef6  | \
w:  de   |  *  u yu *  sun   |  se *  *  *  *  sin *  *  *  de   | 
b6b2 _1/4a2a2 g2g2 a2b2  | 
w:  gel  do *  kun  | 
_1/4a2g2 b2_a2 g2g8-g2  | g3f e2d2 c2_1/4e2 f2g6  | \
w:  ma  *  *  şu *  na   |  SAZ  | 
z4 c'2c'2 b2a2 gfg6  | 
w:  Bu  ge *  ce   | 
b2g2 f2f2 _1/4e2f2 e2f2 e2d2  | _1/4e2f2 g2g2 a2a2 g2b2 g2f2  | \
w:  meh *  tap  *  *  gi *  bi   |  aş *  *  kım *  da  *  bit  | 
f2_1/4e2 f2e2 d2d8c2  | 
w:  se  *  *  su *  da   | 
cBB=A B16  | z4 e2e4e2 d2d4c2  | B4 A2A2 G2G4e4d2  | \
w:   |  Bu  ge ce   |  meh tap  *  *  gi bi   | 
d4 c2c2 B2B2 A2A2 G2B2  | 
w:  aş *  kım *  da  *  bit  | 
A2G4G4G8-G2  | |


